X:1
T:Title
%%score { 1 | ( 2 3 ) }
L:1/8
Q:1/4=90
M:6/8
K:F
V:1 treble nm="Grand Piano"
V:2 bass 
V:3 bass 
V:1
 A2 A G2 D | G2 G .F3 | c2 c B2 F | B2 B .A3 | [EG]2 [EA] [DFG]2 [DFA] | [=B,FG]2 [B,FA] .[CEG]3 | %6
w: Florence~Williams~Falconer * * *||||||
 [F,CF]2 [Cc] [CE]2 [Ec] | [=B,D]2 [B,G] C3 | F2 E G2 F | B2 A c2 B | F3 G3 | A6 | [DFB]6 | %13
w: |||||||
 [CFA]6 |] %14
w: |
V:2
 [F,CF]2 [F,CF] [F,=B,D]2 [F,B,] | [F,B,E]2 [F,B,E] .[F,A,C]3 | [F,_EF]2 [F,EF] [F,DF]2 [F,D] | %3
 [F,DF]2 [F,^CF] .[F,=CF]3 | [C,C]2 [C,C] =B,,2 B,, | G,,2 G,, .C,3 | %6
 A,,2 [A,,F,] [G,,G,]2 [G,,G,] | [G,,F,]2 [G,,F,] [C,E,]3 | [F,A,C]2 [F,G,C] [F,B,C]2 [F,A,C] | %9
 [F,DF]2 [F,CF] [F,_EF]2 [F,DF] | [F,D]3 [F,^CE]3 | [F,CF]6 | z3 z2 ^C | F,6 |] %14
V:3
 x6 | x6 | x6 | x6 | x6 | x6 | x6 | x6 | x6 | x6 | x6 | x6 | B,,6 | x6 |] %14

